X:1
T:The Quiet Hour
T:The Quiet Hour
T:Benjamin Franklin Butts
T:George P. Beard, 1900
T:Public Domain Courtesy of the Cyber Hymnal™
T:Public Domain Courtesy of the Cyber Hymnal™
C:Benjamin Franklin Butts
Z:Public Domain
Z:Courtesy of the Cyber Hymnal™
%%score ( 1 2 ) ( 3 4 )
L:1/8
Q:1/4=95
M:6/8
K:C
V:1 treble 
V:2 treble 
V:3 bass 
V:4 bass 
V:1
 [EG] | [EG]2 [CE] [CF]2 [FA] | [EG]3 [CE]2 [CE] | [DF]2 [DG] [B,F]2 [B,G] | [CE]3- [CE]2 [CE] | %5
w: 1.~Com-|mun- ion with my|Fa- ther, In|calm and qui- et|hour, * Is|
w: 2.~When|storms are fierce a-|bout me, And|sor- row’s bil- lows|roll, * I|
w: 3.~Oh,|leave life’s noise and|tur- moil, And|seek the qui- et|hour, * That|
 [B,D]2 [CE] [DF]2 [FA] | [EG]3 [Ec]2 [Ec] | [Dc]2 [DB] [D^F]2 [DA] | [DG]3- [DG]2 [DF] | %9
w: sweet and rich in|bless- ings, And|Spir- it’s gra- cious|power; * He|
w: hear the Mas- ter|gent- ly Speak|peace un- to my|soul; * When|
w: He who sees in|se- cret May|give thee spir- it|power; * There|
 [CE]2 [DF] [EG]2 [EG] | [FA]3 [EG]2 [EG] | [Ec]2 [Ed] [Fc]2 [FA] | [EG]3- [EG]2 [DF] | %13
w: speaks in tones so|gen- tle, He|hears my hum- blest|prayer, * In|
w: heart is sore with|an- guish, And|eyes are dim with|tears, * A|
w: find your strength in|weak- ness, And|gird your ar- mor|on, * Then|
 [CE]2 [DF] [EG]2 [EG] | [FA]3 [Fc]2 [FA] | [EG]2 [CE] C2 [B,D] | C3- C2 ||"^Refrain" [Ec] | %18
w: se- cret of His|pre- sence I|feel my Fa- ther’s|care. *||
w: qui- et hour with|Je- sus Will|ban- ish pain and|fears. *|O|
w: forth to life’s great|con- flict Till|vic- to- ry is|won. *||
 [Fd]2 [Fd] [Ge]2 [Fd] | [Ec]3 [EG]2 [EG] | [FA]2 [GB] [Ac]2 [FA] | [EG]3- [EG]2 [Ec] | %22
w: ||||
w: Fa- ther, Spir- it,|Sav- ior, Fill|us with Thine own|power; * O,|
w: ||||
 [Fd]2 [FB] [FA]2 [FB] | [Ec]3 E2 [FA] | [EG]2 [CE] C2 [B,D] | C3- C2 |] %26
w: ||||
w: lead Thy lov- ing|child- ren To|seek the qui- et|hour. *|
w: ||||
V:2
 x | x6 | x6 | x6 | x6 | x6 | x6 | x6 | x6 | x6 | x6 | x6 | x6 | x6 | x6 | x3 C2 x | C3- C2 || x | %18
 x6 | x6 | x6 | x6 | x6 | x3 E2 x | x3 C2 x | C3- C2 |] %26
V:3
 [C,C] | [C,C]2 [C,G,] [C,A,]2 [C,C] | [C,C]3 [C,G,]2 [C,G,] | [G,,B,]2 [G,,B,] [G,,G,]2 [G,,G,] | %4
 [C,G,]3- [C,G,]2 [C,G,] | [G,,G,]2 [G,,G,] [G,,G,]2 [G,,B,] | [C,C]3 [C,G,]2 [C,G,] | %7
 [D,^F,]2 [D,G,] [D,A,]2 [D,C] | [G,B,]3- [G,B,]2 [G,B,] | [C,G,]2 [C,G,] [C,C]2 [C,C] | %10
 [F,C]3 [C,C]2 [C,C] | [C,G,]2 [C,G,] [F,A,]2 [F,C] | [C,C]3- [C,C]2 [C,G,] | %13
 [C,G,]2 [C,G,] [C,C]2 [C,C] | [F,C]3 [F,A,]2 [F,C] | [G,C]2 G, [G,,E,]2 [G,,F,] | %16
 [C,E,]3- [C,E,]2 || [C,G,] | [G,B,]2 [G,B,] [G,C]2 [G,B,] | [C,C]3 [C,C]2 [C,C] | %20
 [F,C]2 [F,C] [F,C]2 [F,C] | [C,C]3- [C,C]2 [C,G,] | [G,B,]2 [G,D] [G,C]2 G, | %23
 [C,G,]3 [C,C]2 [F,C] | [G,C]2 G, [G,,E,]2 [G,,F,] | [C,E,]3- [C,E,]2 |] %26
V:4
 x | x6 | x6 | x6 | x6 | x6 | x6 | x6 | x6 | x6 | x6 | x6 | x6 | x6 | x6 | x2 G, x3 | x5 || x | %18
 x6 | x6 | x6 | x6 | x5 G, | x6 | x2 G, x3 | x5 |] %26

